X:0387
T:The Parting Kiss.
M:C
L:1/8
Q:1/4=90
I: :: || DC
P:ABA % Aird prints a da capo
Z:Jack Campin * www.campin.me.uk * 2009
K:G
P:A
B3 c A3 B|G2G2 AFED|D2d2 d3 c|    B2     AB      G2z2 |
B2Bc A2AB|G2G2 AFED|D2d2 d3 c|    B2     AB      G2G2:|
P:B
GABc d2d2|A2Ac B2B2|B2B2 Bgfe|({e}d2)({d}c2) ({c}B4)  |
GABc d2d2|AGAc B2B2|B2E2 AcBA|    G2     F2      E2z2|]

